assets/img/social-icons/youtube.svg

<svg width="40" height="41" viewBox="0 0 40 41" fill="none" xmlns="http://www.w3.org/2000/svg">
<rect y="0.0625" width="40" height="40" rx="20" fill="#C9CED5" fill-opacity="0.16"/>
<path fill-rule="evenodd" clip-rule="evenodd" d="M11.2625 27.1193C10.8702 27.0033 10.5123 26.7968 10.219 26.5174C9.9256 26.2379 9.7054 25.8937 9.57695 25.5137C8.84292 23.5499 8.62543 15.3494 10.0391 13.7306C10.5096 13.2039 11.1739 12.8797 11.8878 12.8283C15.6802 12.4302 27.3975 12.4833 28.7432 12.961C29.1217 13.0808 29.4675 13.2828 29.7547 13.5516C30.0419 13.8205 30.263 14.1493 30.4015 14.5135C31.2035 16.5437 31.2307 23.9214 30.2928 25.872C30.044 26.3798 29.6275 26.791 29.1102 27.0397C27.6965 27.7297 13.1383 27.7164 11.2625 27.1193ZM17.2842 23.2712L24.0808 19.8212L17.2842 16.3446V23.2712Z" fill="white" fill-opacity="0.87"/>
</svg>

<svg xmlns="http://www.w3.org/2000/svg" width="40" height="41" fill="none"><rect width="40" height="40" y=".063" fill="#C9CED5" fill-opacity=".16" rx="20"/><path fill="#fff" fill-opacity=".87" fill-rule="evenodd" d="M11.262 27.12a2.568 2.568 0 0 1-1.043-.603 2.487 2.487 0 0 1-.642-1.003c-.734-1.964-.952-10.165.462-11.783a2.742 2.742 0 0 1 1.849-.903c3.792-.398 15.51-.345 16.855.133.379.12.725.322 1.012.59.287.27.508.598.646.963.802 2.03.83 9.407-.108 11.358a2.538 2.538 0 0 1-1.183 1.168c-1.413.69-15.972.676-17.848.08Zm6.022-3.849 6.797-3.45-6.797-3.476v6.926Z" clip-rule="evenodd"/></svg>
